X:1
T:Title
%%score 1 ( 2 3 )
L:1/8
Q:1/4=102
M:4/4
K:G
V:1 treble nm="Grand Piano, Soprano"
V:2 bass nm="Choir Pad, On for Jesus!, Entwisle"
V:3 bass 
V:1
 [Gd]2 [GB]2 [Ge]2 [Gd]2 | [GB]>[GA] G>[GB] [EA]>[EG] [CE]2 | [B,D]2 [B,G]2 [CE]2 [Ec]2 | %3
w: By~J.~Howard~Entwisle * * *|||
 [DB]>[DB] [GA]>G [FA]4 | [Gd]2 [GB]2 [Ge]2 [Gd]2 | [GB]>[GA] G>[GB] [EA]>[EG] [CE]2 | %6
w: |||
 [B,D]2 [B,G]2 [CE]2 [Ec]2 | [DB]>[DG] [CA]>[CF] [B,G]4 | [FA]4- [FA]>[=F^G] [^FA]>[=GB] | %9
w: |||
 [Ac]4- [Ac]>[^GB] [Ac]>[Bd] | [ce]2 [Bd]2 [Ac]2 [GB]2 | [GB]4 [FA]4 | %12
w: |||
 [FA]4- [FA]>[=F^G] [^FA]>[=GB] | [Ac]4- [Ac]>[ce] [Bd]>[Ac] | [GB]2 [GB]2 [G^c]3 [Gc] | [Fd]6 z2 | %16
w: ||||
 [Gd]2 [GB]2 [Ge]2 [Gd]2 | [GB]>[GA] G>[GB] [EA]>[EG] [CE]2 | [B,D]2 [B,G]2 [CE]2 [Ec]2 | %19
w: |||
 [DB]>[DB] [GA]>G [FA]4 | [Gd]2 [GB]2 [Ge]2 [Gd]2 | [GB]>[GA] G>[GB] [EA]>[EG] [CE]2 | %22
w: |||
 [B,D]2 [B,G]2 [CE]2 [Ec]2 | [DB]>[DG] [CA]>[CF] [B,G]4- | [B,G]4 z4 |] %25
w: |||
V:2
 [G,B,]2 [G,D]2 [G,C]2 [G,B,]2 | [G,D]>[G,C] [G,B,]>[G,D] [C,C]>[C,C] [C,G,]2 | %2
 [G,,G,]2 [G,,G,]2 [C,G,]2 [C,G,]2 | G,>G, [E,^C]>[E,C] D2 =C2 | [G,B,]2 [G,D]2 [G,C]2 [G,B,]2 | %5
 [G,D]>[G,C] [G,B,]>[G,D] [C,C]>[C,C] [C,G,]2 | [G,,G,]2 [G,,G,]2 [C,G,]2 [C,G,]2 | %7
 [D,G,]>[D,B,] [D,F,]>[D,A,] [G,,G,]4 | [D,D]2 [D,D]2 [D,D]2 z2 | [D,D]2 [D,D]2 [D,D]2 z2 | %10
 [D,D]2 [D,D]2 [F,D]2 [G,D]2 | [D,D]4 [D,D]4 | [D,D]2 [D,D]2 [D,D]2 z2 | [D,D]2 [D,D]2 [D,D]2 z2 | %14
 [G,D]2 [G,D]2 [E,A,]3 [A,,A,] | A,4 C2 z2 | [G,B,]2 [G,D]2 [G,C]2 [G,B,]2 | %17
 [G,D]>[G,C] [G,B,]>[G,D] [C,C]>[C,C] [C,G,]2 | [G,,G,]2 [G,,G,]2 [C,G,]2 [C,G,]2 | %19
 G,>G, [E,^C]>[E,C] D2 =C2 | [G,B,]2 [G,D]2 [G,C]2 [G,B,]2 | %21
 [G,D]>[G,C] [G,B,]>[G,D] [C,C]>[C,C] [C,G,]2 | [G,,G,]2 [G,,G,]2 [C,G,]2 [C,G,]2 | %23
 [D,G,]>[D,B,] [D,F,]>[D,A,] [G,,G,]4- | [G,,G,]4 z4 |] %25
V:3
 x8 | x8 | x8 | z4 D,4 | x8 | x8 | x8 | x8 | x8 | x8 | x8 | x8 | x8 | x8 | x8 | D,6 z2 | x8 | x8 | %18
 x8 | z4 D,4 | x8 | x8 | x8 | x8 | x8 |] %25

